website/static/img/icons/lightdash.svg

<svg enable-background="new 0 0 400 400" viewBox="0 0 400 400" xmlns="http://www.w3.org/2000/svg"><path d="m.999997 382c.000003-120.355957.000003-240.711945.251186-361.196415.715227-.57369 1.380722-.932913 1.612924-1.477041 3.189525-7.474138 8.284804-13.041895 15.834061-16.296036.611986-.263799.876079-1.334667 1.301832-2.030508 120.355972 0 240.711945 0 361.196411.251165.57367.715199.932892 1.380708 1.47702 1.612873 7.474396 3.189147 13.041657 8.284922 16.296357 15.833687.263885.612086 1.334472.876372 2.030212 1.302271 0 120.355976 0 240.711949-.251221 361.196415-.71521.57367-1.384948.932922-1.612274 1.476959-3.142456 7.520905-8.484924 12.849152-15.834198 16.292633-.616455.288849-.876648 1.338044-1.302307 2.033997-120.355957 0-240.711945 0-361.196363-.25116-.573601-.71521-.932787-1.380737-1.476887-1.612945-7.474033-3.189514-13.041746-8.284851-16.296519-15.833618-.263915-.612091-1.334491-.876374-2.030234-1.302277m150.106342-166.060349h52.873992c-.281097 1.525361-.370834 2.176362-.522705 2.812546-6.255966 26.209717-12.617019 52.395264-18.640045 78.658356-.678512 2.958588-.379623 6.875458 1.065994 9.44931 4.33162 7.712281 14.287003 6.631592 19.223938-1.798706 25.644837-43.791076 51.241791-87.610183 76.922669-131.380081 2.480835-4.228256 4.290069-8.354828 1.587463-13.080688-2.767914-4.840119-7.269745-5.708222-12.421264-5.652192-13.636383.148331-27.275437.050278-41.541901.050278.647812-2.24353 1.077484-3.975052 1.645431-5.659958 4.517182-13.400512 9.094849-26.780723 13.58371-40.190681 2.914276-8.706085-1.458496-15.051117-10.685379-15.104408-22.153213-.127968-44.307846-.088799-66.461563-.013772-6.810455.023056-10.844208 3.69381-11.830414 10.360909-4.796585 32.42572-9.550049 64.857849-14.38858 97.277298-1.198074 8.027328.978699 11.745254 9.588654 14.271789z" fill="#7262ff"/><path d="m382.46936 401c-.043701-.695953.216492-1.745148.832947-2.033997 7.349274-3.443481 12.691742-8.771728 15.834198-16.292633.227326-.544037.897064-.903289 1.612274-1.010925.251221 6.596802.251221 12.856018.251221 19.337555-6.018616 0-12.039917 0-18.53064 0z"/><path d="m19.530624 1c.043623.695841-.22047 1.766709-.832456 2.030508-7.549257 3.254141-12.644536 8.821898-15.834061 16.296036-.232202.544128-.897697.903351-1.612924 1.010999-.251183-6.596777-.251183-12.856011-.251183-19.337543z"/><path d="m401 19.530621c-.69574.043476-1.766327-.22081-2.030212-.832896-3.2547-7.548765-8.821961-12.64454-16.296357-15.833687-.544128-.232165-.90335-.897674-1.010986-1.612873 6.596802-.251165 12.856018-.251165 19.337555-.251165z"/><path d="m.999997 382.46936c.695743-.043457 1.766319.220826 2.030234.832917 3.254773 7.548767 8.822486 12.644104 16.296519 15.833618.5441.232208.903286.897735 1.010845 1.612945-6.596828.25116-12.856061.25116-19.337595.25116 0-6.018616 0-12.039917-.000003-18.53064z"/><path d="m150.676132 215.887299c-8.179748-2.474183-10.356521-6.192109-9.158447-14.219437 4.838531-32.419449 9.591995-64.851578 14.38858-97.277298.986206-6.667099 5.019959-10.337853 11.830414-10.360909 22.153717-.075027 44.30835-.114196 66.461563.013772 9.226883.053291 13.599655 6.398323 10.685379 15.104408-4.488861 13.409958-9.066528 26.790169-13.58371 40.190681-.567947 1.684906-.997619 3.416428-1.645431 5.659958 14.266464 0 27.905518.098053 41.541901-.050278 5.151519-.05603 9.65335.812073 12.421264 5.652192 2.702606 4.72586.893372 8.852432-1.587463 13.080688-25.680878 43.769898-51.277832 87.589005-76.922669 131.380081-4.936935 8.430298-14.892318 9.510987-19.223938 1.798706-1.445617-2.573852-1.744506-6.490722-1.065994-9.44931 6.023026-26.263092 12.384079-52.448639 18.640045-78.658356.151871-.636184.241608-1.287185.522705-2.812546-17.816177 0-35.345092 0-53.304199-.052352z" fill="#fefeff"/></svg>

<svg version="1.1" id="Layer_1" xmlns="http://www.w3.org/2000/svg" xmlns:xlink="http://www.w3.org/1999/xlink" x="0px" y="0px"
	 width="100%" viewBox="0 0 400 400" enable-background="new 0 0 400 400" xml:space="preserve">
<path fill="#7262FF" opacity="1.000000" stroke="none" 
	d="
M0.999997,382.000000 
	C1.000000,261.644043 1.000000,141.288055 1.251183,20.803585 
	C1.966410,20.229895 2.631905,19.870672 2.864107,19.326544 
	C6.053632,11.852406 11.148911,6.284649 18.698168,3.030508 
	C19.310154,2.766709 19.574247,1.695841 20.000000,1.000000 
	C140.355972,1.000000 260.711945,1.000000 381.196411,1.251165 
	C381.770081,1.966364 382.129303,2.631873 382.673431,2.864038 
	C390.147827,6.053185 395.715088,11.148960 398.969788,18.697725 
	C399.233673,19.309811 400.304260,19.574097 401.000000,19.999996 
	C401.000000,140.355972 401.000000,260.711945 400.748779,381.196411 
	C400.033569,381.770081 399.363831,382.129333 399.136505,382.673370 
	C395.994049,390.194275 390.651581,395.522522 383.302307,398.966003 
	C382.685852,399.254852 382.425659,400.304047 382.000000,401.000000 
	C261.644043,401.000000 141.288055,401.000000 20.803637,400.748840 
	C20.230036,400.033630 19.870850,399.368103 19.326750,399.135895 
	C11.852717,395.946381 6.285004,390.851044 3.030231,383.302277 
	C2.766316,382.690186 1.695740,382.425903 0.999997,382.000000 
M151.106339,215.939651 
	C168.635239,215.939651 186.164154,215.939651 203.980331,215.939651 
	C203.699234,217.465012 203.609497,218.116013 203.457626,218.752197 
	C197.201660,244.961914 190.840607,271.147461 184.817581,297.410553 
	C184.139069,300.369141 184.437958,304.286011 185.883575,306.859863 
	C190.215195,314.572144 200.170578,313.491455 205.107513,305.061157 
	C230.752350,261.270081 256.349304,217.450974 282.030182,173.681076 
	C284.511017,169.452820 286.320251,165.326248 283.617645,160.600388 
	C280.849731,155.760269 276.347900,154.892166 271.196381,154.948196 
	C257.559998,155.096527 243.920944,154.998474 229.654480,154.998474 
	C230.302292,152.754944 230.731964,151.023422 231.299911,149.338516 
	C235.817093,135.938004 240.394760,122.557793 244.883621,109.147835 
	C247.797897,100.441750 243.425125,94.096718 234.198242,94.043427 
	C212.045029,93.915459 189.890396,93.954628 167.736679,94.029655 
	C160.926224,94.052711 156.892471,97.723465 155.906265,104.390564 
	C151.109680,136.816284 146.356216,169.248413 141.517685,201.667862 
	C140.319611,209.695190 142.496384,213.413116 151.106339,215.939651 
z"/>
<path fill="#000000" opacity="1.000000" stroke="none" 
	d="
M382.469360,401.000000 
	C382.425659,400.304047 382.685852,399.254852 383.302307,398.966003 
	C390.651581,395.522522 395.994049,390.194275 399.136505,382.673370 
	C399.363831,382.129333 400.033569,381.770081 400.748779,381.662445 
	C401.000000,388.259247 401.000000,394.518463 401.000000,401.000000 
	C394.981384,401.000000 388.960083,401.000000 382.469360,401.000000 
z"/>
<path fill="#000000" opacity="1.000000" stroke="none" 
	d="
M19.530624,1.000000 
	C19.574247,1.695841 19.310154,2.766709 18.698168,3.030508 
	C11.148911,6.284649 6.053632,11.852406 2.864107,19.326544 
	C2.631905,19.870672 1.966410,20.229895 1.251183,20.337543 
	C1.000000,13.740766 1.000000,7.481532 1.000000,1.000000 
	C7.018606,1.000000 13.039927,1.000000 19.530624,1.000000 
z"/>
<path fill="#000000" opacity="1.000000" stroke="none" 
	d="
M401.000000,19.530621 
	C400.304260,19.574097 399.233673,19.309811 398.969788,18.697725 
	C395.715088,11.148960 390.147827,6.053185 382.673431,2.864038 
	C382.129303,2.631873 381.770081,1.966364 381.662445,1.251165 
	C388.259247,1.000000 394.518463,1.000000 401.000000,1.000000 
	C401.000000,7.018606 401.000000,13.039927 401.000000,19.530621 
z"/>
<path fill="#000000" opacity="1.000000" stroke="none" 
	d="
M0.999997,382.469360 
	C1.695740,382.425903 2.766316,382.690186 3.030231,383.302277 
	C6.285004,390.851044 11.852717,395.946381 19.326750,399.135895 
	C19.870850,399.368103 20.230036,400.033630 20.337595,400.748840 
	C13.740767,401.000000 7.481534,401.000000 1.000000,401.000000 
	C1.000000,394.981384 1.000000,388.960083 0.999997,382.469360 
z"/>
<path fill="#FEFEFF" opacity="1.000000" stroke="none" 
	d="
M150.676132,215.887299 
	C142.496384,213.413116 140.319611,209.695190 141.517685,201.667862 
	C146.356216,169.248413 151.109680,136.816284 155.906265,104.390564 
	C156.892471,97.723465 160.926224,94.052711 167.736679,94.029655 
	C189.890396,93.954628 212.045029,93.915459 234.198242,94.043427 
	C243.425125,94.096718 247.797897,100.441750 244.883621,109.147835 
	C240.394760,122.557793 235.817093,135.938004 231.299911,149.338516 
	C230.731964,151.023422 230.302292,152.754944 229.654480,154.998474 
	C243.920944,154.998474 257.559998,155.096527 271.196381,154.948196 
	C276.347900,154.892166 280.849731,155.760269 283.617645,160.600388 
	C286.320251,165.326248 284.511017,169.452820 282.030182,173.681076 
	C256.349304,217.450974 230.752350,261.270081 205.107513,305.061157 
	C200.170578,313.491455 190.215195,314.572144 185.883575,306.859863 
	C184.437958,304.286011 184.139069,300.369141 184.817581,297.410553 
	C190.840607,271.147461 197.201660,244.961914 203.457626,218.752197 
	C203.609497,218.116013 203.699234,217.465012 203.980331,215.939651 
	C186.164154,215.939651 168.635239,215.939651 150.676132,215.887299 
z"/>
</svg>
